X:1
T:Evighetsvalsen
R:Vals
M:3/4
L:1/8
S:Utlärd av [[Personer/Anders Liljefors]] på Ekebyholmskursen 2009
S:Efter [[Personer/Anders Liljefors den äldre]]
Z:Nils L
O:Uppland
K:D
f2 cd AF | D4 FA | G2 EA ce | d2 A2 A2 | f2 cd AF | D4 FA | G2 EA ce | d2 !fine!d4 ::
a2 aa aa | a2 ec A2 | B2 Bd cB | A^G  Ac e2 | a2 aa aa | a2 ec A2 | B2 Bd cB | A2 A4 :|

